web/mps/mps-icon-with-text.svg

<svg height="143" viewBox="0 0 555 143" width="555" xmlns="http://www.w3.org/2000/svg" xmlns:xlink="http://www.w3.org/1999/xlink"><linearGradient id="a" gradientUnits="userSpaceOnUse" x1="105.97886" x2="-27.24385" y1="187.79332" y2="17.1485"><stop offset=".0914" stop-color="#0b8fff"/><stop offset=".2077" stop-color="#0d94f6"/><stop offset=".39603" stop-color="#11a3de"/><stop offset=".63282" stop-color="#18bbb7"/><stop offset=".87097" stop-color="#21d789"/></linearGradient><linearGradient id="b" x1="178.60455" x2="45.38182" xlink:href="#a" y1="131.09432" y2="-39.55053"/><linearGradient id="c" gradientUnits="userSpaceOnUse" x1="78.58615" x2="126.29738" y1="107.22451" y2="-21.08"><stop offset=".12297" stop-color="#21d789"/><stop offset=".13191" stop-color="#27d788"/><stop offset=".21553" stop-color="#59d87b"/><stop offset=".30328" stop-color="#85d970"/><stop offset=".39353" stop-color="#abda67"/><stop offset=".487" stop-color="#cadb5f"/><stop offset=".58469" stop-color="#e1db59"/><stop offset=".68842" stop-color="#f2dc55"/><stop offset=".80231" stop-color="#fcdc53"/><stop offset=".94595" stop-color="#ffdc52"/></linearGradient><path d="m184.8349 1.998h33.17189l36.76869 59.14858 36.7687-59.14858h33.17189v139.88118h-30.57407v-91.32311l-39.36652 59.74925h-.799l-38.96748-59.14858v90.72243h-30.1741z"/><path d="m334.69863 1.998h57.15137c33.37184 0 53.5546 19.78365 53.5546 48.359v.39831c0 32.37368-25.17845 49.15878-56.55153 49.15878h-23.38042v41.96517h-30.774zm55.15344 70.53887c15.387 0 24.37943-9.19157 24.37943-21.18093v-.39994c0-13.78817-9.59229-21.18254-24.9793-21.18254h-23.77955v42.76337z"/><path d="m443.914 121.49646 18.18479-21.78161c12.58922 10.39131 25.77832 16.98586 41.7652 16.98586 12.58842 0 20.18195-4.9949 20.18195-13.1891v-.39991c0-7.79429-4.79574-11.79021-28.17539-17.78408-28.17619-7.19522-46.361-14.9879-46.361-42.76339v-.40152c.00005-25.37761 20.38275-42.16271 48.95805-42.16271 20.38271 0 37.76848 6.39379 51.95655 17.78408l-15.98688 23.1805c-12.38927-8.59251-24.57938-13.78817-36.368-13.78817-11.791 0-17.98564 5.39481-17.98564 12.18851v.40152c0 9.19157 5.99468 12.18851 30.17415 18.38315 28.37615 7.39438 44.363 17.58654 44.363 41.96517v.39991c0 27.77548-21.18253 43.36245-51.35748 43.36245a89.01108 89.01108 0 0 1 -59.3493-22.38066z"/><path d="m0 141.708h139.999l-70.311-70.189-69.688-69.81z" fill="url(#a)"/><path d="m139.999 141.708-70.311-70.189 70.311-69.811z" fill="url(#b)"/><path d="m101.767 103.475-32.079-31.956 70.311-69.811z" fill="url(#c)"/></svg>

<svg id="Layer_1" data-name="Layer 1" xmlns="http://www.w3.org/2000/svg" xmlns:xlink="http://www.w3.org/1999/xlink" width="555" height="143" viewBox="0 0 555 143">
  <defs>
    <linearGradient id="linear-gradient" x1="105.97886" y1="187.79332" x2="-27.24385" y2="17.1485" gradientUnits="userSpaceOnUse">
      <stop offset="0.0914" stop-color="#0b8fff"/>
      <stop offset="0.2077" stop-color="#0d94f6"/>
      <stop offset="0.39603" stop-color="#11a3de"/>
      <stop offset="0.63282" stop-color="#18bbb7"/>
      <stop offset="0.87097" stop-color="#21d789"/>
    </linearGradient>
    <linearGradient id="linear-gradient-2" x1="178.60455" y1="131.09432" x2="45.38182" y2="-39.55053" xlink:href="#linear-gradient"/>
    <linearGradient id="linear-gradient-3" x1="78.58615" y1="107.22451" x2="126.29738" y2="-21.08" gradientUnits="userSpaceOnUse">
      <stop offset="0.12297" stop-color="#21d789"/>
      <stop offset="0.13191" stop-color="#27d788"/>
      <stop offset="0.21553" stop-color="#59d87b"/>
      <stop offset="0.30328" stop-color="#85d970"/>
      <stop offset="0.39353" stop-color="#abda67"/>
      <stop offset="0.487" stop-color="#cadb5f"/>
      <stop offset="0.58469" stop-color="#e1db59"/>
      <stop offset="0.68842" stop-color="#f2dc55"/>
      <stop offset="0.80231" stop-color="#fcdc53"/>
      <stop offset="0.94595" stop-color="#ffdc52"/>
    </linearGradient>
  </defs>
  <title>mps_logo_with_text</title>
  <g>
    <g id="_Group_" data-name="&lt;Group&gt;">
      <path id="_Compound_Path_" data-name="&lt;Compound Path&gt;" d="M184.8349,1.998h33.17189l36.76869,59.14858L291.54418,1.998h33.17189V141.87918H294.142V50.55607l-39.36652,59.74925h-.799L215.009,51.15674v90.72243H184.8349Z"/>
      <path id="_Compound_Path_2" data-name="&lt;Compound Path&gt;" d="M334.69863,1.998H391.85c33.37184,0,53.5546,19.78365,53.5546,48.359v.39831c0,32.37368-25.17845,49.15878-56.55153,49.15878H365.47265v41.96517h-30.774Zm55.15344,70.53887c15.387,0,24.37943-9.19157,24.37943-21.18093V50.956c0-13.78817-9.59229-21.18254-24.9793-21.18254H365.47265V72.53683Z"/>
      <path id="_Compound_Path_3" data-name="&lt;Compound Path&gt;" d="M443.914,121.49646l18.18479-21.78161c12.58922,10.39131,25.77832,16.98586,41.7652,16.98586,12.58842,0,20.18195-4.9949,20.18195-13.1891v-.39991c0-7.79429-4.79574-11.79021-28.17539-17.78408-28.17619-7.19522-46.361-14.9879-46.361-42.76339v-.40152C449.5096,16.7851,469.8923,0,498.4676,0c20.38271,0,37.76848,6.39379,51.95655,17.78408l-15.98688,23.1805c-12.38927-8.59251-24.57938-13.78817-36.368-13.78817-11.791,0-17.98564,5.39481-17.98564,12.18851v.40152c0,9.19157,5.99468,12.18851,30.17415,18.38315,28.37615,7.39438,44.363,17.58654,44.363,41.96517v.39991c0,27.77548-21.18253,43.36245-51.35748,43.36245A89.01108,89.01108,0,0,1,443.914,121.49646Z"/>
    </g>
    <g>
      <polygon points="0 141.708 139.999 141.708 69.688 71.519 0 1.709 0 141.708" fill="url(#linear-gradient)"/>
      <polygon id="_Path_" data-name="&lt;Path&gt;" points="139.999 141.708 69.688 71.519 139.999 1.708 139.999 141.708" fill="url(#linear-gradient-2)"/>
      <polygon id="_Path_2" data-name="&lt;Path&gt;" points="101.767 103.475 69.688 71.519 139.999 1.708 101.767 103.475" fill="url(#linear-gradient-3)"/>
    </g>
  </g>
</svg>
